icons/mobile/24/svg/thumbs-down-fill-24.svg

<svg width="24" height="24" viewBox="0 0 24 24" fill="none" xmlns="http://www.w3.org/2000/svg">
<path d="M13.5635 5.28418C15.0083 5.28919 16.3652 5.35972 17.6221 5.4707C18.4589 5.54471 19.2127 5.99397 19.6377 6.71777C20.1546 7.59767 20.6758 8.62778 21.1328 9.80762C21.6858 11.2366 22.0321 12.5889 22.2461 13.7979C22.5141 15.3169 21.3759 16.7059 19.8359 16.7959C19.066 16.8409 18.258 16.8644 17.416 16.8574C16.4121 16.8494 15.4622 16.7987 14.5713 16.7217V20.5049C14.5713 21.3298 13.9021 21.9989 13.0771 21.999C12.4331 21.999 11.8622 21.5866 11.6592 20.9766L10.8203 18.459C10.7504 18.2481 10.6531 18.0482 10.5312 17.8623L8.46387 14.71V5.53906C10.0059 5.37906 11.7145 5.27818 13.5635 5.28418Z" fill="black"/>
<path d="M4.92871 3.99902C5.1527 3.99902 5.43202 4.01167 5.75 4.05566C6.38299 4.14366 6.85741 4.69301 6.85742 5.33301V14.2383C6.85729 14.8902 6.3715 15.4296 5.72559 15.5176C5.48068 15.5506 5.2136 15.5723 4.92773 15.5723C4.70386 15.5723 4.42515 15.5586 4.10742 15.5146C3.47451 15.4267 3.00013 14.8782 3 14.2383V5.33301C3.00001 4.68105 3.48491 4.14078 4.13086 4.05273C4.37578 4.01975 4.64282 3.99904 4.92871 3.99902Z" fill="black"/>
</svg>

<!-- This Source Code Form is subject to the terms of the Mozilla Public
   - License, v. 2.0. If a copy of the MPL was not distributed with this
   - file, You can obtain one at http://mozilla.org/MPL/2.0/. -->
<svg xmlns="http://www.w3.org/2000/svg" width="24" height="24" fill="none" viewBox="0 0 24 24">
    <path fill="#000" d="M13.564 5.284a48 48 0 0 1 4.058.187c.837.074 1.59.523 2.016 1.247a21.3 21.3 0 0 1 2.608 7.08c.268 1.519-.87 2.908-2.41 2.998a36 36 0 0 1-5.265-.074v3.783a1.495 1.495 0 0 1-2.912.472l-.839-2.518a2.6 2.6 0 0 0-.289-.597L8.464 14.71V5.54c1.542-.16 3.25-.262 5.1-.256M4.929 3.999a6 6 0 0 1 .821.057 1.29 1.29 0 0 1 1.107 1.277v8.905c0 .652-.486 1.192-1.131 1.28a6 6 0 0 1-1.619-.003A1.29 1.29 0 0 1 3 14.238V5.333c0-.652.485-1.192 1.13-1.28a6 6 0 0 1 .799-.054" />
</svg>
